updated-assets/images/civil.svg

<svg width="32" height="32" viewBox="0 0 32 32" fill="none" xmlns="http://www.w3.org/2000/svg">
<g clip-path="url(#clip0_1556_2575)">
<path d="M16 31.875C24.7675 31.875 31.875 24.7675 31.875 16C31.875 7.23248 24.7675 0.125 16 0.125C7.23248 0.125 0.125 7.23248 0.125 16C0.125 24.7675 7.23248 31.875 16 31.875Z" fill="#FBCA61"/>
<path d="M23.475 17.8498C25.1595 17.8498 26.525 16.4955 26.525 14.8248C26.525 13.1541 25.1595 11.7998 23.475 11.7998C21.7906 11.7998 20.425 13.1541 20.425 14.8248C20.425 16.4955 21.7906 17.8498 23.475 17.8498Z" fill="white"/>
<path d="M23.475 18.375C21.5 18.375 19.9 16.775 19.9 14.8C19.9 12.85 21.5 11.25 23.475 11.25C25.45 11.25 27.05 12.85 27.05 14.825C27.05 16.775 25.45 18.375 23.475 18.375ZM23.475 12.3C22.075 12.3 20.95 13.425 20.95 14.8C20.95 16.175 22.075 17.3 23.475 17.3C24.875 17.3 26 16.175 26 14.8C25.975 13.425 24.85 12.3 23.475 12.3Z" fill="#313C42"/>
<path d="M8.425 17.8498C10.1095 17.8498 11.475 16.4955 11.475 14.8248C11.475 13.1541 10.1095 11.7998 8.425 11.7998C6.74053 11.7998 5.375 13.1541 5.375 14.8248C5.375 16.4955 6.74053 17.8498 8.425 17.8498Z" fill="white"/>
<path d="M8.42498 18.3751C6.44998 18.3751 4.84998 16.7751 4.84998 14.8001C4.84998 12.8251 6.44998 11.2251 8.42498 11.2251C10.4 11.2251 12 12.8501 12 14.8251C12 16.7751 10.4 18.3751 8.42498 18.3751ZM8.42498 12.3001C7.02498 12.3001 5.89998 13.4251 5.89998 14.8001C5.89998 16.1751 7.02498 17.3001 8.42498 17.3001C9.82498 17.3001 10.95 16.1751 10.95 14.8001C10.925 13.4251 9.79998 12.3001 8.42498 12.3001Z" fill="#313C42"/>
<path d="M15.95 19.0749C17.6345 19.0749 19 17.7206 19 16.0499C19 14.3792 17.6345 13.0249 15.95 13.0249C14.2656 13.0249 12.9 14.3792 12.9 16.0499C12.9 17.7206 14.2656 19.0749 15.95 19.0749Z" fill="#E8E8E8"/>
<path d="M15.95 19.6251C13.975 19.6251 12.375 18.0251 12.375 16.0501C12.375 14.0751 13.975 12.4751 15.95 12.4751C17.925 12.4751 19.525 14.0751 19.525 16.0501C19.525 18.0251 17.925 19.6251 15.95 19.6251ZM15.95 13.5501C14.55 13.5501 13.425 14.6751 13.425 16.0501C13.425 17.4251 14.55 18.5501 15.95 18.5501C17.35 18.5501 18.475 17.4251 18.475 16.0501C18.45 14.6751 17.325 13.5501 15.95 13.5501Z" fill="#313C42"/>
<path d="M17.55 20.8999C17.05 21.0749 16.5 21.1749 15.925 21.1749C15.375 21.1749 14.825 21.0749 14.3 20.8999C11.8 21.7499 9.94995 24.5499 9.94995 27.8749C9.94995 28.8249 10.6 29.5999 11.375 29.5999H20.525C21.325 29.5999 21.95 28.8249 21.95 27.8749C21.95 24.5499 20.1 21.7499 17.55 20.8999Z" fill="white"/>
<path d="M20.525 30.1252H11.375C10.3 30.1252 9.40002 29.1252 9.40002 27.8752C9.40002 24.4252 11.35 21.3502 14.15 20.4252C14.275 20.3752 14.375 20.4002 14.5 20.4252C15.425 20.7502 16.425 20.7502 17.375 20.4252C17.475 20.3752 17.6 20.3752 17.725 20.4252C20.525 21.3752 22.475 24.4252 22.475 27.8752C22.475 29.1002 21.6 30.1252 20.525 30.1252ZM14.325 21.4752C12.05 22.3252 10.45 24.9252 10.45 27.8752C10.45 28.5252 10.875 29.0752 11.35 29.0752H20.5C21 29.0752 21.4 28.5252 21.4 27.8752C21.4 24.9502 19.825 22.3502 17.525 21.4752C16.5 21.8002 15.375 21.8002 14.325 21.4752Z" fill="#313C42"/>
<path d="M9.95002 27.8753C9.95002 25.2003 11.15 22.8753 12.95 21.6253C12.2 20.5753 11.2 19.8003 10.05 19.4253C9.55002 19.6003 9.00002 19.7003 8.42502 19.7003C7.87502 19.7003 7.32502 19.6003 6.80002 19.4253C4.27502 20.2753 2.40002 23.0503 2.40002 26.3753C2.40002 27.3253 3.05002 28.1003 3.82502 28.1003H9.92502V27.8753H9.95002Z" fill="#FFE8AE"/>
<path d="M9.95 28.6252H3.85C2.775 28.6252 1.875 27.6252 1.875 26.3752C1.875 22.9252 3.825 19.8502 6.625 18.9252C6.75 18.8752 6.85 18.9002 6.975 18.9252C7.9 19.2502 8.9 19.2502 9.85 18.9252C9.95 18.8752 10.075 18.8752 10.2 18.9252C11.425 19.3252 12.525 20.1752 13.35 21.3252C13.425 21.4502 13.475 21.5752 13.45 21.7252C13.425 21.8752 13.35 22.0002 13.225 22.0752C11.525 23.2752 10.45 25.5002 10.45 27.8752V28.1002C10.475 28.4002 10.225 28.6252 9.95 28.6252ZM6.8 19.9752C4.525 20.8252 2.925 23.4252 2.925 26.3752C2.925 27.0252 3.35 27.5752 3.825 27.5752H9.4C9.475 25.1752 10.5 22.9252 12.175 21.5252C11.55 20.8002 10.825 20.2752 10.025 19.9752C8.975 20.3252 7.85 20.3252 6.8 19.9752Z" fill="#313C42"/>
<path d="M25.0751 19.4253C24.5751 19.6003 24.0251 19.7003 23.4501 19.7003C22.9001 19.7003 22.3501 19.6003 21.8251 19.4253C20.6751 19.8003 19.675 20.5753 18.925 21.6253C20.725 22.8753 21.925 25.2003 21.925 27.8753V28.1003H28.025C28.825 28.1003 29.4501 27.3253 29.4501 26.3753C29.475 23.0503 27.6251 20.2753 25.0751 19.4253Z" fill="#E8E8E8"/>
<path d="M28.05 28.6252H21.95C21.65 28.6252 21.425 28.3752 21.425 28.1002V27.8752C21.425 25.4752 20.375 23.2502 18.65 22.0752C18.525 22.0002 18.45 21.8752 18.425 21.7252C18.4 21.5752 18.425 21.4502 18.525 21.3252C19.375 20.1752 20.45 19.3502 21.675 18.9252C21.8 18.8752 21.9 18.9002 22.025 18.9252C22.95 19.2502 23.95 19.2502 24.9 18.9252C25 18.8752 25.125 18.8752 25.25 18.9252C28.05 19.8752 30 22.9252 30 26.3752C30 27.6252 29.125 28.6252 28.05 28.6252ZM22.475 27.5752H28.05C28.55 27.5752 28.95 27.0252 28.95 26.3752C28.95 23.4502 27.375 20.8502 25.075 19.9752C24.025 20.3002 22.9 20.3002 21.85 19.9752C21.05 20.2752 20.3 20.8002 19.7 21.5252C21.35 22.9252 22.4 25.1502 22.475 27.5752Z" fill="#313C42"/>
<path d="M27.2751 2.3999H19.7501C18.4751 2.3999 17.4501 3.4249 17.4501 4.6999V6.9499C17.4501 8.2249 18.4751 9.2499 19.7501 9.2499L19.1501 11.7749L22.2251 9.2499H27.2751C28.5501 9.2499 29.5751 8.2249 29.5751 6.9499V4.6999C29.6001 3.4499 28.5501 2.3999 27.2751 2.3999Z" fill="#FFE8AE"/>
<path d="M19.125 12.2999C19.025 12.2999 18.9251 12.2749 18.85 12.2249C18.65 12.0999 18.575 11.8749 18.625 11.6499L19.1 9.7249C17.85 9.4249 16.925 8.2999 16.925 6.9749V4.7249C16.925 3.1749 18.2 1.8999 19.775 1.8999H27.3251C28.9001 1.8999 30.175 3.1749 30.175 4.7249V6.9749C30.175 8.5249 28.9001 9.7999 27.3251 9.7999H22.4L19.4501 12.1999C19.3751 12.2749 19.25 12.2999 19.125 12.2999ZM19.75 2.9499C18.775 2.9499 17.975 3.7499 17.975 4.7249V6.9749C17.975 7.9499 18.775 8.7499 19.75 8.7499C19.925 8.7499 20.075 8.8249 20.175 8.9499C20.275 9.0749 20.3 9.2499 20.275 9.3999L20.025 10.3749L21.9 8.8499C22 8.7749 22.1251 8.7249 22.225 8.7249H27.275C28.25 8.7249 29.05 7.9249 29.05 6.9499V4.6999C29.05 3.7249 28.25 2.9249 27.275 2.9249H19.75V2.9499Z" fill="#313C42"/>
</g>
<defs>
<clipPath id="clip0_1556_2575">
<rect width="32" height="32" fill="white"/>
</clipPath>
</defs>
</svg>

<svg width="32" height="32" fill="none" xmlns="http://www.w3.org/2000/svg"><g clip-path="url(#a)"><path d="M16 31.875c8.767 0 15.875-7.108 15.875-15.875C31.875 7.232 24.767.125 16 .125 7.232.125.125 7.232.125 16c0 8.767 7.107 15.875 15.875 15.875Z" fill="#FBCA61"/><path d="M23.475 17.85c1.684 0 3.05-1.355 3.05-3.025S25.16 11.8 23.475 11.8c-1.684 0-3.05 1.354-3.05 3.025 0 1.67 1.366 3.025 3.05 3.025Z" fill="#fff"/><path d="M23.475 18.375A3.574 3.574 0 0 1 19.9 14.8c0-1.95 1.6-3.55 3.575-3.55s3.575 1.6 3.575 3.575c0 1.95-1.6 3.55-3.575 3.55Zm0-6.075c-1.4 0-2.525 1.125-2.525 2.5s1.125 2.5 2.525 2.5S26 16.175 26 14.8c-.025-1.375-1.15-2.5-2.525-2.5Z" fill="#313C42"/><path d="M8.425 17.85c1.684 0 3.05-1.355 3.05-3.025S10.11 11.8 8.425 11.8c-1.684 0-3.05 1.354-3.05 3.025 0 1.67 1.366 3.025 3.05 3.025Z" fill="#fff"/><path d="M8.425 18.375a3.574 3.574 0 1 1 0-7.15c1.975 0 3.575 1.625 3.575 3.6 0 1.95-1.6 3.55-3.575 3.55Zm0-6.075c-1.4 0-2.525 1.125-2.525 2.5s1.125 2.5 2.525 2.5 2.525-1.125 2.525-2.5c-.025-1.375-1.15-2.5-2.525-2.5Z" fill="#313C42"/><path d="M15.95 19.075c1.684 0 3.05-1.354 3.05-3.025 0-1.67-1.366-3.025-3.05-3.025-1.684 0-3.05 1.354-3.05 3.025 0 1.67 1.366 3.025 3.05 3.025Z" fill="#E8E8E8"/><path d="M15.95 19.625a3.574 3.574 0 1 1 0-7.15 3.574 3.574 0 1 1 0 7.15Zm0-6.075c-1.4 0-2.525 1.125-2.525 2.5s1.125 2.5 2.525 2.5 2.525-1.125 2.525-2.5c-.025-1.375-1.15-2.5-2.525-2.5Z" fill="#313C42"/><path d="M17.55 20.9a4.925 4.925 0 0 1-3.25 0c-2.5.85-4.35 3.65-4.35 6.975 0 .95.65 1.725 1.425 1.725h9.15c.8 0 1.425-.775 1.425-1.725 0-3.325-1.85-6.125-4.4-6.975Z" fill="#fff"/><path d="M20.525 30.125h-9.15c-1.075 0-1.975-1-1.975-2.25 0-3.45 1.95-6.525 4.75-7.45.125-.05.225-.025.35 0a4.36 4.36 0 0 0 2.875 0c.1-.05.225-.05.35 0 2.8.95 4.75 4 4.75 7.45 0 1.225-.875 2.25-1.95 2.25Zm-6.2-8.65c-2.275.85-3.875 3.45-3.875 6.4 0 .65.425 1.2.9 1.2h9.15c.5 0 .9-.55.9-1.2 0-2.925-1.575-5.525-3.875-6.4a5.373 5.373 0 0 1-3.2 0Z" fill="#313C42"/><path d="M9.95 27.875c0-2.675 1.2-5 3-6.25-.75-1.05-1.75-1.825-2.9-2.2a4.925 4.925 0 0 1-3.25 0c-2.525.85-4.4 3.625-4.4 6.95 0 .95.65 1.725 1.425 1.725h6.1v-.225h.025Z" fill="#FFE8AE"/><path d="M9.95 28.625h-6.1c-1.075 0-1.975-1-1.975-2.25 0-3.45 1.95-6.525 4.75-7.45.125-.05.225-.025.35 0a4.36 4.36 0 0 0 2.875 0c.1-.05.225-.05.35 0 1.225.4 2.325 1.25 3.15 2.4.075.125.125.25.1.4a.486.486 0 0 1-.225.35c-1.7 1.2-2.775 3.425-2.775 5.8v.225a.493.493 0 0 1-.5.525Zm-3.15-8.65c-2.275.85-3.875 3.45-3.875 6.4 0 .65.425 1.2.9 1.2H9.4c.075-2.4 1.1-4.65 2.775-6.05-.625-.725-1.35-1.25-2.15-1.55-1.05.35-2.175.35-3.225 0Z" fill="#313C42"/><path d="M25.075 19.425a4.925 4.925 0 0 1-3.25 0c-1.15.375-2.15 1.15-2.9 2.2 1.8 1.25 3 3.575 3 6.25v.225h6.1c.8 0 1.425-.775 1.425-1.725.025-3.325-1.825-6.1-4.375-6.95Z" fill="#E8E8E8"/><path d="M28.05 28.625h-6.1c-.3 0-.525-.25-.525-.525v-.225c0-2.4-1.05-4.625-2.775-5.8a.486.486 0 0 1-.225-.35.469.469 0 0 1 .1-.4c.85-1.15 1.925-1.975 3.15-2.4.125-.05.225-.025.35 0a4.36 4.36 0 0 0 2.875 0c.1-.05.225-.05.35 0 2.8.95 4.75 4 4.75 7.45 0 1.25-.875 2.25-1.95 2.25Zm-5.575-1.05h5.575c.5 0 .9-.55.9-1.2 0-2.925-1.575-5.525-3.875-6.4a5.456 5.456 0 0 1-3.225 0c-.8.3-1.55.825-2.15 1.55 1.65 1.4 2.7 3.625 2.775 6.05Z" fill="#313C42"/><path d="M27.275 2.4H19.75a2.294 2.294 0 0 0-2.3 2.3v2.25c0 1.275 1.025 2.3 2.3 2.3l-.6 2.525 3.075-2.525h5.05c1.275 0 2.3-1.025 2.3-2.3V4.7c.025-1.25-1.025-2.3-2.3-2.3Z" fill="#FFE8AE"/><path d="M19.125 12.3c-.1 0-.2-.025-.275-.075a.522.522 0 0 1-.225-.575l.475-1.925a2.838 2.838 0 0 1-2.175-2.75v-2.25c0-1.55 1.275-2.825 2.85-2.825h7.55c1.575 0 2.85 1.275 2.85 2.825v2.25c0 1.55-1.275 2.825-2.85 2.825H22.4l-2.95 2.4c-.075.075-.2.1-.325.1Zm.625-9.35c-.975 0-1.775.8-1.775 1.775v2.25c0 .975.8 1.775 1.775 1.775.175 0 .325.075.425.2.1.125.125.3.1.45l-.25.975L21.9 8.85a.589.589 0 0 1 .325-.125h5.05c.975 0 1.775-.8 1.775-1.775V4.7c0-.975-.8-1.775-1.775-1.775H19.75v.025Z" fill="#313C42"/></g><defs><clipPath id="a"><path fill="#fff" d="M0 0h32v32H0z"/></clipPath></defs></svg>
